X: 1258
T: Bert Jamieson's Mazurka
B: australian traditional tunes wiki
M:3/4
L:1/8
R: Mazurka
Q: 1/4=100
K:G
V:1 
DG|"G"B2BA GB|d2de dB|"D"A2Ad ed|"G"B4DG|B2BA GB|d2de dB|"D"A2Ac BA|"G"G4gf||
"C"e2(3efe (3dBG|"D"A4fe|d2-dc BA|"G"B4gf|"C"e2(3efe (3dBG|"D"A4fe|d2-dc BA|"G"G4||
% abcbook-tune_id 6342d53a849345159b63aa5a


% abcbook-boost 0
% abcbook-tablature 
% abcbook-transpose 
% abcbook-lastupdated 1665324356328
% abcbook-soundfonts 
% abcbook-repeats 1
% NFF Book 2022
% Bush Traditions recording played by Ray Mulligan

